X:1
T:Gris et tenné
T:Claudin de Sermisy
T:Source : Second livre contenant 31 chansons à 4, eslevées de plusieurs livres---Paris---P.Attaignant-1535. Editor : André Vierendeels (27/04/18) Notes : Original clefs :  C1, C3, C4, F4 Original note values have been halved Editorial accidentals above the staff
T:Gris et tenné
T:©
T:©
T:©
C:Claudin de Sermisy
Z:©
%%score [ 1 [ 2 3 ] 4 ]
L:1/8
Q:1/4=120
M:2/2
K:C
V:1 treble nm="Alto" snm="A"
V:2 treble-8 nm="Tenor 1" snm="T 1"
V:3 treble-8 nm="Tenor 2" snm="T 2"
V:4 bass nm="Bass" snm="B"
V:1
 z4 G4 | G2 G2 A4 | G4 E2 G2- | GF D2 E4 | D8 | z2 D2 D2 D2 | FEFG A4- | A2 F2 G2 A2- | AG G4 F2 | %9
w: Gris|et ten- né|me fault por-||ter,|car ten- né|suis _ _ _ _|_ en es- pe-|* * ran- *|
 G4 z2 G2 | G2 G2 A4 | G4 E2 G2- | GF D2 E4 | D8 | z2 D2 D2 D2 | FEFG A4- | A2 F2 G2 A2- | %17
w: ce, et|le iaul- ne|me fault lays-||ser,|qu'a- mour por-|te _ _ _ _|_ par io- ys-|
 A2 G4 F2 | G8 | F4 F4 | E4 D4- | D2 E2 F4 | G4 E4 | D4 z4 | z4 D4 | D2 D2 F4 | G4 G2 B2- | %27
w: * san- *|ce,|le noir|se- ra|_ si- gni-|fi- an-|ce,|de|vi- vr'en doeul|et en tri-|
 B2 A4 G2 | A8 | z2 D2 D2 D2 | FEFG A4- | A2 F2 G2 A2- |"^#" A2 G4 F2 | G8 | z2 D2 D2 D2 | %35
w: * stes- *|se,|puis- qu'il con-|vient _ _ _ _|_ que ie vous|_ lays- *|se.|puis- qu'il con-|
 FEFG A4- | A2 F2 G2 A2- | A2 G4 F2 | G8 |] %39
w: vient _ _ _ _|_ que ie vous|_ lays- *|se.|
V:2
 z8 | G4 c2 c2 | B2 B2 G3 A | Bc d4 c2 | d4 A4 | A2 A2 BABc | d6 d2 | c2 d2 e2 A2 | B2 c2 d3 c | %9
w: |Gris et ten-|né me fault _|_ _ _ por-|ter, car|ten- né suis _ _ _|_ en|es- pe- ran- *||
 B2 c2 G4 | z2 G2 c2 c2 | B2 B2 G3 A | Bc d4 c2 | d4 A4 | A2 A2 BABc | d6 d2 | c2 d2 e2 A2 | %17
w: * * ce,|et le iaul-|ne me fault _|_ _ _ lays-|ser, qu'a-|mour por- te _ _ _|_ par|io- ys- san- *|
 B2 c2 d4 | B4 z2 d2 | d2 d2 AGAB | c2 c2 dcBA | B2 B2 A4 | B2 c2 G3 A | Bc d4 c2 | d4 z2 A2 | %25
w: |ce, le|noir se- ra _ _ _|_ si- gni- * * *|* fi- an-|||ce, de|
 B2 G2 d3 c | B2 e2 d2 g2 | e2 f2 d4 | d4 A4 | A2 A2 BABc | d6 d2 | c2 d2 e2 A2 | B2 c2 d4 | %33
w: vi- vr'en doeul et|en tri- stes- *||se, puis-|qu'il con vient _ _ _|_ que|ie vous lays- *||
 B4 z2 G2 | G2 G2 BABc | d6 d2 | c2 d2 e2 A2 | B2 c2 d4 | B8 |] %39
w: se, puis-|qu'il con- vient _ _ _|_ que|ie vous lays- *||se.|
V:3
 G4 c2 c2 | B4 A3 G | E2 D2 E4 | D4 A3 G | G2 F4 ED | E2 F2 G2 D2 | D2 D2 FEFG | A2 A2 c2 c2 | %8
w: Gris et ten-|né me _|_ fault por-|ter, me _|fault por- * *|* * ter, car|ten- né suis _ _ _|_ en es- pe-|
 B2 G2 A4 | G2 G2 c2 c2 | B2 B2 A3 G | E2 D2 E4 | D4 A3 G | G2 F4 ED | E2 F2 G2 D2 | D2 D2 FEFG | %16
w: ran- * *|ce, et le iaul-|ne me fault _|_ _ lays-|ser, me _|fault lays- * *|* * ser, qu'a-|mour por- te _ _ _|
 A2 A2 c2 c2 | B2 G2 A4 | G2 G2 G2 G2 | D4 z4 | z4 z2 G2 | G2 G2 D2 F2 | E2 C3 DEF | G2 D2 E4 | %24
w: _ par io- ys-|san- * *|ce, le noir se-|ra,|le|noir se- ra si-|gni- fi- an- * *||
 D2 G2 A2 F2 | G2 B4 A2 | G3 A Bc d2 | c2 A2 B4 | A3 G F2 ED | E2 F2 G2 D2 | D2 D2 FEFG | %31
w: ce,de vi- vr'en doeul|et en tri-|stes- * * * *|||* * se, puis-|qu'il con- vient _ _ _|
 A2 A2 c2 c2 | B2 G2 A4 | G2 G2 G2 G2 | BABc d2 D2 | D2 D2 FEFG | A2 A2 c2 c2 | B2 G2 A4 | G8 |] %39
w: _ que ie vous|lays- * *|se, puis- qu'il con-|vient _ _ _ _ que|ie vous lays- * * *|se, que ie vous|lays- * *|se.|
V:4
 z8 | z8 | G,,4 C,2 C,2 | B,,4 A,,4 | B,,2 D,4 C,B,, | C,2 D,2 G,,4 | z2 D,2 D,2 D,2 | %7
w: ||Gris et ten-|né me|fault _ _ _|_ por- ter,|car ten- né|
 F,2 F,2 E,2 F,2 | G,2 E,2 D,4 | G,,2 C,3 B,,C,D, | E,F, G,4 F,2 | G,2 G,,2 C,2 C,2 | B,,4 A,,4 | %13
w: suis en es- pe-|ran- * *|||ce, et le iaul-|ne me|
"^#" B,,2 D,4 C,B,, | C,2 D,2 G,,4 | z2 D,2 D,2 D,2 | F,2 F,2 E,2 F,2 | G,2 E,2 D,4 | G,,8 | %19
w: fault _ _ _|_ laus- ser,|qu'a- mour por-|te par io- ys-|san- * *|ce,|
 z2 D,2 D,2 D,2 | A,,2 C,2 B,,2 G,,2 | G,,4 D,4 | z8 | z4 A,,4 | B,,2 G,,2 D,4 | z4 z2 D,2 | %26
w: le noir se-|ra si- gni- fi-|an- ce,||de|vi- vr'en doeul,|de|
 E,2 C,2 G,2 G,2 | A,2 F,2 G,4 | D,6 C,B,, | C,2 D,2 G,,4 | z2 D,2 D,2 D,2 | F,2 F,2 E,2 F,2 | %32
w: vi- vr'en doeul et|en tri- stes-||* * se,|puis- qu'il con-|vient que ie vous|
 G,2 E,2 D,4 |"^#" G,,8- | G,,8 | z2 D,2 D,2 D,2 | F,2 F,2 E,2 F,2 | G,2 E,2 D,4 | G,,8 |] %39
w: lays- * *|se,|_|puis- qu'il con-|vient que ie vous|lays- * *|se.|

